logo.svg

<svg xmlns="http://www.w3.org/2000/svg" viewBox="0 0 57 11"><path d="M1 1v9H56V1z" fill="#000"/><path d="M0 0V11H57V0zM56 1v9H1V1zM2 2v3H6V2H7V8H2V9H6V6H3V2zM8 3v5h4V9H9V2h3V8h1V3zm6 1V5h2V9h1V5h2V4H17V2H16V4zm6-2V8h4V2h1V9H21V2zm6 0V9h4V6h1V8H27V6h3V5H27V2zm6 1V4h1V2h3V3h1V9H33V6H32V8h4V6H33V5h3V3zm6-1V4h1V3h3V5H40V7H38V9h1V6h2V4h2V2zm6 0V4h1V3h3V5H46V7H44V9h1V6h2V4h2V2zm6 0V4h1V3h3V5H52V7H50V9h1V6h2V4h2V2z" fill="#fff"/></svg>

<svg xmlns="http://www.w3.org/2000/svg" viewBox="0 0 57 11"><path d="M 1 1 V 10 H 56 V 1 Z" fill="#000"/><path d="M 0 0 V 11 H 57 V 0 Z M 56 1 V 10 H 1 V 1 Z M 2 2 v 3 H 6 V 2 H 7 V 8 H 2 V 9 H 6 V 6 H 3 V 2 Z M 8 3 v 5 H 12 V 9 H 9 V 2 H 12 V 8 H 13 V 3 Z M 14 4 V 5 H 16 V 9 H 17 V 5 H 19 V 4 H 17 V 2 H 16 V 4 Z M 20 2 V 8 H 24 V 2 H 25 V 9 H 21 V 2 Z M 26 2 V 9 H 30 V 6 H 31 V 8 H 27 V 6 H 30 V 5 H 27 V 2 Z M 32 3 V 4 H 33 V 2 H 36 V 3 H 37 V 9 H 33 V 6 H 32 V 8 H 36 V 6 H 33 V 5 H 36 V 3 Z M 38 2 V 4 H 39 V 3 H 42 V 5 H 40 V 7 H 38 V 9 H 39 V 6 H 41 V 4 H 43 V 2 Z M 44 2 V 4 H 45 V 3 H 48 V 5 H 46 V 7 H 44 V 9 H 45 V 6 H 47 V 4 H 49 V 2 Z M 50 2 V 4 H 51 V 3 H 54 V 5 H 52 V 7 H 50 V 9 H 51 V 6 H 53 V 4 H 55 V 2 Z" fill="#fff"/></svg>
